X:1
T:Polska efter Enninger
T:(SvL Skne nr 528, "Enningers finaste")
C:John Enninger
R:Vals
Z:Patrik Mnsson, 2008-11-06
O:Hr, Skne
S:Svenska Ltar
Q:1/4=90
N:Svanevit spelar den i G-dur och sedan D-dur p CDn Rikedom och Gvor som kom 2008 p Nordic Tradition (NTCD11). Dom kallar den fr Enningers Finaste och jag satte tempot ungefr efter den.
M:3/4
L:1/8
K:D
|: AA d2 ef | g2 fe d2 | ff fe Bc | dc !trill!B2 A2 | AA d2 ef |
g2 fe d2 | ff fe Bc | (3dcB A4 :: fa fa e>f |
g2 fe d2 | ff fe Bc | dc !trill!B2 A2 | AA df ag | e>c d4 :|
